      ;FLANEC 75570-1701866
      ;STANOK N_3734
      ;NC-
      ;OP. 
      ;PROGRAMMU GOTOVIL PETROVICH A.V. 16-28.03.2015
;******************************************************
N10  DEF REAL FUS=3000,RO,DPR,KP,TF,TS
N20  $P_UIFR[1]=CTRANS(X,R1,Y,R2,W,R3)
;*****************************************************
      ;    **VVESTI PAR. R1,R2,R3
      ;R1-CENTER DETALI = (-606.53) ** X **
      ;R2-CENTER DETALI = (-613.6) ** Y **
      ;R3-TOREC DETALI = (-790.8)  ** Z **
;******************************************************
        ;REZHUSHCI INSTRUMENT
;************************************************
;T1-FREZA D=80 CHERN.
;T2-SVERLO CENT. D=5
;************** B=0 ("B"-POVOROT STOLA *************
N30  T1 M6
;*********************************** T1
N40  MSG(" T1 FREZA D=80")
N50  G0 G54 G17 G90 W500 D1
N60  M5
N70  G0 B0
N80  G54 G17 X0 Y0
N90  G0 W200
N100  M0 ;OBKATKA X0 Y0 (R1=X; R2=Y)
N110  G0 W500
N120  M0 ;POSTAV T3-SVERLO CENT. D=5
;******* USTANOVI V RUCH. S=500, SHPINDEL VIDVINUT NA 30MM****
N130  T2 M6
N140  G0 G54 G17 X0 Y0 D1
N150  S500 M3
N160  W100
N170  G111 X0 Y0
N180  F35
N190  G0 RP=230/2 AP=-45
N200  MCALL CYCLE81(20,0,3,-8.5)
N210  RP=230/2 AP=-45 ;1 OTV
N220  AP=IC(90)  ;2 OTV
N230  AP=IC(90)  ;3 OTV
N240  AP=IC(90)  ;4 OTV
N250  MCALL
N260  G0 W500 M5
N270  M0 ;POSTAV FREZU D=80
N280  T1 M6
;*********************************** T1
N290  MSG(" T1 FREZA D=80")
;********************* NIZ*********
N300  TRANS Y=-115
N310  RO=130/2
N320  G0 G54 G17 X0 Y-85
N330  S500 M3
N340  G0 W-2 D1
N350  X0 Y-85
N360  G1 G41 X=RO F1000
N370  Y0 F200
N380  G3 Y0 X=-RO J=AC(0) I=AC(0) F400
N390  G1 Y-60 F300
N400  G1 G40 X0 Y-85 F1000
N410  G0 W300 M5
N420  M0 ;MERIT L=2
;T********************************
N430  TRANS Y=-115
N440  DPR=88.3 KP=40 RO=130/2
N450  G0 G54 G17 X0 Y-85
N460  S500 M3
N470  G0 W0 D1
N480  MA2: G1 W=IC(-DPR/KP) F500
N490  X0 Y-85
N500  G1 G41 X=RO F1000
N510  Y0 F200
N520  G3 Y0 X=-RO J=AC(0) I=AC(0) F400
N530  G1 Y-60 F300
N540  G1 G40 X0 Y-85 F1000
N550  REPEAT MA2 P=KP-1
N560  G0 W300 M5
N570  M0 ;MERIT L=88.3
;********************* VERH*********
N580  TRANS Y=115
N590  DPR=88.3 KP=40 RO=130/2
N600  G0 G54 G17 X0 Y85
D1
N610  S500 M3
N620  G0 W0
N630  MA1: G1 W=IC(-DPR/KP) F500
N640  X0 Y85
N650  G1 G41 X=-RO F1000
N660  Y0 F200
N670  G3 Y0 X=RO J=AC(0) I=AC(0) F400
N680  G1 Y60 F300
N690  G1 G40 X0 Y85 F1000
N700  REPEAT MA1 P=KP-1
N710  G0 W100 M5
N720  M0
;********************* LEVO*********
N730  TRANS X=-115
N740  DPR=88.3 KP=40 RO=130/2
N750  G0 G54 G17 X-85 Y0
N760  S500 M3
N770  G0 W0
D1
N780  MA3: G1 W=IC(-DPR/KP) F500
N790  X-85 Y0
N800  G1 G41 Y=-RO F1000
N810  X0 F200
N820  G3 X0 Y=RO J=AC(0) I=AC(0) F400
N830  G1 X-60 F300
N840  G1 G40 X-85 Y0 F1000
N850  REPEAT MA3 P=KP-1
N860  G0 W100 M5
N870  M0
;********************* PRAVO*********
N880  TRANS X=115
N890  DPR=88.3 KP=40 RO=130/2
N900  G0 G54 G17 X85 Y0
N910  S500 M3
N920  G0 W0
D1
N930  MA4: G1 W=IC(-DPR/KP) F500
N940  X85 Y0
N950  G1 G41 Y=RO F1000
N960  X0 F200
N970  G3 X0 Y=-RO J=AC(0) I=AC(0) F400
N980  G1 X60 F300
N990  G1 G40 X85 Y0 F1000
N1000  REPEAT MA4 P=KP-1
N1010  G0 W300 M5
N1020  M0 ;MERIAT L=88.3
;************ CHISTO ***********
;********************* VERH*********
N1030  TRANS Y=115
N1040  RO=129.8/2
N1050  G0 G54 G17 X0 Y85
D1
N1060  S500 M3
N1070  G0 W-89.15
N1080  G1 X0 Y85 F1000
N1090  G41 X=-RO F1000
N1100  Y0 F200
N1110  G3 Y0 X=RO J=AC(0) I=AC(0) F400
N1120  G1 Y60 F300
N1130  G1 G40 X0 Y85 F1000
N1140  G0 W300 M5
N1150  M0 ;MERIT L=89+0.35
;************* NIZ ******************
N1160  TRANS Y=-115
N1170  RO=129.8/2
N1180  G0 G54 G17 X0 Y-85
N1190  S500 M3
N1200  G0 W-89.15 D1
N1210  G1 X0 Y-85 F1000
N1220  G41 X=RO
N1230  Y0 F200
N1240  G3 Y0 X=-RO J=AC(0) I=AC(0) F400
N1250  G1 Y-60 F300
N1260  G1 G40 X0 Y-85 F1000
N1270  G0 W50
;********************* LEVO*********
N1280  TRANS X=-115
N1290  RO=129.8/2
N1300  G0 G54 G17 X-85 Y0
N1310  S500 M3
N1320  G0 W-89.15
D1
N1330  G1 X-85 Y0 F1000
N1340  G41 Y=-RO
N1350  X0 F200
N1360  G3 X0 Y=RO J=AC(0) I=AC(0) F400
N1370  G1 X-60 F300
N1380  G1 G40 X-85 Y0 F1000
N1390  G0 W50
;********************* PRAVO*********
N1400  TRANS X=115
N1410  RO=129.8/2
N1420  G0 G54 G17 X85 Y0
N1430  S500 M3
N1440  G0 W-89.15
D1
N1450  G1 X85 Y0 F1000
N1460  G41 Y=RO
N1470  X0 F200
N1480  G3 X0 Y=-RO J=AC(0) I=AC(0) F400
N1490  G1 X60 F300
N1500  G1 G40 X85 Y0 F1000
N1510  G0 W300 M5
N1520  M0 ;POSTAV T2-SVERLO CENT. D=5
N1530  M30
;SVERLO CENT. D=5 = 9 MIN
;FREZA D=80 CHERN. = 323 MIN
;********* ITOGO:332 MIN ****************