%MPF1
MSG(" Siemens 828D (SM500) ")
;( DS205 )
;( 80 x 100 x 9.125 )
;( H_PU )
;( 74 / 120 )
;( 30.11.2015 )
G54
ATRANS X=R24 Z=R11
ASN:
R10=$P_ACTFRAME[Z,TR]
IF R10<R11+R12+10.13 GOTOF ASO
 
N10 MSG(" PLANDREHEN ")
N20 M01
N30 TOOL_LD(7,"D8")
N40 T7 D1
N50 ;( [Pos a] )
N60 G95 F0.15 S1066 M4 
N70 M09
N80  G0  X126.00 
N90  Z5.00 
N100  G1  G41 Z-2.00 
N110  X103.30 
N120  X99.30 Z0.00 F0.13 
N130  X89.68 F0.15 
N140  Z-0.50 
N150  X71.00 M53 
N160  G0  G40 Z40.00 M63 
N170 MSG(" EINSTICH ")
N180 M01
N190 TOOL_LD(7,"D8")
N200 T7 D1
N210 ;( [Pos a] )
N220 G95 F0.15 S1061 M4 
N230 M09
N240  G0  X91.83 
N250  Z1.00 
N260  G1  X90.97 Z-2.11 
N270  X87.48 
N280  X86.63 Z1.00 
N290  G0  
N300  X93.84 
N310  G1  X92.47 Z-3.92 
N320  X85.99 
N330  X84.62 Z1.00 
N340  G0  
N350  G41 X96.84 
N360  G1  X94.80 Z-2.80 
N370  X94.37 Z-4.55 
N380  G3  X92.38 Z-5.43 CR=1.00 
N390  G1  X88.73 M53 
N400  G0  G40 Z40.00 M63 
N410  G42 X81.25 
N420  Z1.00 
N430  G1  X83.66 Z-2.30 
N440  X84.21 Z-4.55 
N450  G2  X86.19 Z-5.43 CR=1.00 
N460  G1  X89.73 M53 
N470  G0  G40 Z40.00 M63 
N480 MSG(" INNEN SCHRUPPEN ")
N490 M01
N500 TOOL_LD(1,"D2")
N510 T1 D1
N520 ;( [Pos a] )
N530 G95 F0.21 S1061 M4 
N540 M08
N550  G0  X77.06 
N560  Z1.00 
N570  G1  Z-11.13 
N580  G0  X76.56 
N590  Z5.00 
N600  Z40.00 
N610 MSG(" INNEN SCHLICHTEN ")
N620 M01
N630 TOOL_LD(1,"D2")
N640 T1 D1
N650 ;( [Pos a] )
N660 G95 F0.16 S1061 M4 
N670 M08
N680  G0  G41 X80.26 
N690  Z1.00 
N700  G1  Z-0.50 
N710  G2  X78.33 Z-1.25 CR=1.00 
N720  X79.53 Z-4.66 CR=4.15 
N730  G3  X80.60 Z-6.10 CR=1.00 
N740  G1  Z-7.13 
N750  X82.20 Z-9.32 
N760  Z-10.13 
N770  G0  X76.06 
N780  G40 Z40.00 
N790 MSG(" AUSSEN SCHRUPPEN ")
N800 M01
N810 TOOL_LD(1,"D1")
N820 T1 D1
N830 ;( [Pos a] )
N840 G95 F0.21 S1061 M4 
N850 M08
N860  G0  X114.10 
N870  Z1.00 
N880  G1  Z-11.13 
N890  G0  X115.10 
N900  Z5.00 
N910  X108.20 
N920  Z1.00 
N930  G1  Z-11.13 
N940  G0  X109.20 
N950  Z5.00 
N960  X102.30 
N970  Z1.00 
N980  G1  Z-11.13 
N990  G0  X103.30 
N1000  Z5.00 
N1010  Z40.00 
N1020 MSG(" AUSSEN SCHLICHTEN ")
N1030 M01
N1040 TOOL_LD(1,"D1")
N1050 T1 D1
N1060 ;( [Pos a] )
N1070 G95 F0.15 S1061 M4 
N1080 M08
N1090  G0  G42 X102.47 
N1100  Z1.00 
N1110  G1  X99.18 Z-4.28 F0.13 
N1120  G2  X100.10 Z-5.43 CR=1.00 
N1130  G1  Z-8.13 
N1140  X97.70 Z-9.32 
N1150  Z-10.13 
N1160  G0  X103.30 
N1170  G40 Z40.00 
N1180 MSG(" ABSTICH ")
N1190 M01
N1200 TOOL_LD(8,"D32")
N1210 T8 D1
N1220 ;( [Pos a] )
N1230 G95 F0.20 S1061 M4 
N1240 M08
N1250 ATRANS X=R23
N1260  G0  X103.30 
N1270  Z-9.13 
N1280  G1  X76.06 
N1290  G0  X103.30 
N1300  Z60.00 
N1310 M09
ATRANS X=R25 Z-10.63
/ M05
/ R13=$P_ACTFRAME[X, TR]
/ R14=$P_ACTFRAME[Z, TR]
/ ATRANS X=-R13 Z=-R14
/ D0 G00 X=R15 Z=R16
/ ATRANS X=R13 Z=R14
/ M00
GOTOB ASN
ASO:
R13=$P_ACTFRAME[X, TR]
R14=$P_ACTFRAME[Z, TR]
ATRANS X=-R13 Z=-R14
D0 G00 X=R15 Z=R16
M01
T4
M30

